X:1
T:Le Galrien
C:Maurice Druon, abc file by Bernard Loffet
L:1/8
Q:320
M:3/4
K:C
[c2C,2]C,2[G2C,2]|[e2C,2]C,2[c2C,2]|[d2G,2]G,2[B2G,2]|[G2G,2]G,2G,2|[g2G,2][g2G,2][g2G,2]|[g2G,2]G,2[f2G,2]|[e2E,2]E,2E,2|[e2E,2]E,2E,2|[a2A,2]A,2[e2A,2]| \
[c2A,2]A,2[A2A,2]|[B2E,2]E,2[^G2E,2]|[E2E,2]E,2E,2|[e2E,2][f2A,2][e2E,2]|[d2E,2][c2E,2][B2E,2]|[A2A,2]A,2A,2|[B2G,2]G,2G,2| \
Z:Created with TablEdit http://www.tabledit.com/ by Bernard Loffet
